!!!COM: Palestrina, Giovanni Perluigi da
!!!OPR: Missa Benedicta es
!!!OMD: Agnus II
!!!OTL: First Section
**kern	**kern	**kern	**kern	**kern	**kern
*Ibass	*Ibass	*Itenor	*Icalto	*Icalto	*Icant
!Bassus 2	!Bassus 1	!Tenor	!Altus 2	!Altus 1	!Cantus
*clefF4	*clefF4	*clefGv2	*clefG2	*clefG2	*clefG2
*k[]	*k[]	*k[]	*k[]	*k[]	*k[]
*G:mix	*G:mix	*G:mix	*G:mix	*G:mix	*G:mix
*M3/2	*M3/2	*M3/2	*M3/2	*M3/2	*M3/2
=1	=1	=1	=1	=1	=1
1r	1r	1r	2d	1r	1r
.	.	.	2d	.	.
2r	2r	2r	2e	2r	2r
=2	=2	=2	=2	=2	=2
1r	1r	1r	1f	2d	1r
.	.	.	.	2d	.
2r	2r	2r	2c	2e	2r
=3	=3	=3	=3	=3	=3
1r	2D	1r	2.d	1f	1r
.	2D	.	.	.	.
.	.	.	4c	.	.
2r	2E	2r	2B	2e	2r
=4	=4	=4	=4	=4	=4
1r	1F	1r	2A	2c	2a
.	.	.	2a	1d	2a
2r	2G	2r	2g	.	2b
=5	=5	=5	=5	=5	=5
1r	2A	2A	2e	2c	1cc
.	2F	2A	2f	2a	.
2r	2G	2B	2d	2g	2b
=6	=6	=6	=6	=6	=6
1r	2C	1c	2c	2e	2g
.	2F	.	1d	2f	2.a
2r	2G	2B	.	2d	.
.	.	.	.	.	4g
=7	=7	=7	=7	=7	=7
1r	1C	2G	1e	1g	2g
.	.	1A	.	.	1cc
2r	2r	.	2c	2f	.
=8	=8	=8	=8	=8	=8
1r	1r	2G	1d	2g	2b
.	.	1A	.	1e	1a
2r	2r	.	2c#	.	.
=9	=9	=9	=9	=9	=9
2D	1r	2D	2.d	1f	1a
2D	.	2F	.	.	.
.	.	.	4c	.	.
2E	2r	2G	2B	4e	2r
.	.	.	.	4d	.
=10	=10	=10	=10	=10	=10
1F	1r	1A	2A	1c	2a
.	.	.	2a	.	2a
2E	2r	2r	2g	2r	2b
=11	=11	=11	=11	=11	=11
2C	1r	2A	2e	1r	2cc
1D	.	2A	1f	.	2a
.	2r	2B	.	2r	2dd
=12	=12	=12	=12	=12	=12
1C	1r	1c	2e	2e	1g
.	.	.	2r	2e	.
2D	2r	2B	2r	2f	2dd
=13	=13	=13	=13	=13	=13
2E	1r	2G	2e	2g	2b
1AA	.	1A	2e	2.c	1cc
.	2r	.	2f	.	.
.	.	.	.	4d	.
=14	=14	=14	=14	=14	=14
1r	2E	1G	1g	1e	2.b
.	2E	.	.	.	.
.	.	.	.	.	4g
2r	2F	2c	2f	2A	2a
=15	=15	=15	=15	=15	=15
1r	1G	2.B	2d	2r	1g
.	.	.	2.e	2B	.
.	.	4G	.	.	.
2r	2F	2A	.	2c	2r
.	.	.	4d	.	.
=16	=16	=16	=16	=16	=16
1r	2D	2B	2d	1d	1r
.	1E	1G	1g	.	.
2r	.	.	.	2c#	2r
=17	=17	=17	=17	=17	=17
2r	1.D	1.A	2f	1d	2.a
2r	.	.	2.d	.	.
.	.	.	.	.	4g
2D	.	.	.	2r	2a
.	.	.	4c	.	.
=18	=18	=18	=18	=18	=18
2.G	1r	1r	2d	1r	2.b
.	.	.	2.e	.	.
4E	.	.	.	.	4g
2E	2r	2r	.	2r	2g
.	.	.	4c	.	.
=19	=19	=19	=19	=19	=19
2F	1r	1r	2c	1r	2a
2D	.	.	2d	.	2f
2E	2r	2r	2B	2r	2g
=20	=20	=20	=20	=20	=20
2C	2r	2.A	2c	2r	2e
1D	2r	.	1A	2.d	1f
.	.	4G	.	.	.
.	2D	2A	.	.	.
.	.	.	.	4c	.
=21	=21	=21	=21	=21	=21
1GG	2.G	2.B	1.G	2d	1.g
.	.	.	.	2.e	.
.	4E	4G	.	.	.
2r	2E	2G	.	.	.
.	.	.	.	4c	.
=22	=22	=22	=22	=22	=22
1r	2F	2A	1r	2c	1r
.	2D	2F	.	2d	.
2r	2E	2G	2r	2B	2r
=23	=23	=23	=23	=23	=23
1r	2C	2E	1r	2c	2.a
.	1D	1F#	.	1A	.
.	.	.	.	.	4g
2r	.	.	2r	.	2a
=24	=24	=24	=24	=24	=24
2r	1.GG	1.G	2.d	2G	1b
2.G	.	.	.	2r	.
.	.	.	4c	.	.
.	.	.	2d	2r	[2b
4F	.	.	.	.	.
=25	=25	=25	=25	=25	=25
2G	1r	1r	2.e	1r	2b]
2.A	.	.	.	.	1cc
.	.	.	4c	.	.
.	2r	2r	2c	2r	.
4F	.	.	.	.	.
=26	=26	=26	=26	=26	=26
2F	1r	1r	2d	1r	2a
2G	.	.	2B	.	2b
2E	2r	2r	2c	2r	2g
=27	=27	=27	=27	=27	=27
2F	2r	1r	2A	2.d	2a
2G	2.G	.	1B	.	1g
.	.	.	.	4c	.
2GG	.	2r	.	2d	.
.	4F	.	.	.	.
=28	=28	=28	=28	=28	=28
2.C	2G	1E	1.c	2.e	2g
.	2.A	.	.	.	2r
4AA	.	.	.	4c	.
2AA	.	[2A	.	2c	2r
.	4F	.	.	.	.
=29	=29	=29	=29	=29	=29
2D	2F	4A]	1r	2d	1r
.	.	4D	.	.	.
2GG	2G	2d	.	2B	.
2C	2E	2e	2r	2c	2r
=30	=30	=30	=30	=30	=30
2D	2F	2.d	1r	2A	1r
2GG	1G	.	.	1B	.
.	.	4c	.	.	.
2r	.	2d	2r	.	2r
=31	=31	=31	=31	=31	=31
2G	1C	2.e	2r	1c	1r
2E	.	.	2g	.	.
.	.	4d	.	.	.
2F	2r	2c	2a	2r	2r
=32	=32	=32	=32	=32	=32
2G	1r	2B	2.g	2d	2r
2C	.	1A	.	2e	2cc
.	.	.	4e	.	.
2D	2r	.	2f#	[2d	2a
=33	=33	=33	=33	=33	=33
2GG	2G	1G	1g	4d]	2.b
.	.	.	.	4B	.
2r	2E	.	.	2e	.
.	.	.	.	.	4cc
2r	2F	2r	2r	2c	2a
=34	=34	=34	=34	=34	=34
1r	2G	2r	2d	2B	2.g
.	2C	2c	2e	1A	.
.	.	.	.	.	4e
2r	2D	2A	[2d	.	2f#
=35	=35	=35	=35	=35	=35
2G	2GG	2.B	4d]	1G	1g
.	.	.	4B	.	.
2E	2r	.	2e	.	.
.	.	4c	.	.	.
2F	2r	2A	2c	2r	2r
=36	=36	=36	=36	=36	=36
2G	1r	2.G	2B	2d	2r
2C	.	.	1G	2e	2cc
.	.	4E	.	.	.
2D	2r	2F#	.	[2d	2a
=37	=37	=37	=37	=37	=37
2GG	2G	2G	2G	4d]	2b
.	.	.	.	4B	.
2r	2E	2G	2g	2e	2cc
2r	2F	2A	2f	2c	2a
=38	=38	=38	=38	=38	=38
1r	2G	2B	2d	2B	2.g
.	2C	2c	2e	1A	.
.	.	.	.	.	4e
2r	2D	2A	2d	.	2f#
*-	*-	*-	*-	*-	*-
!!!CDT: 1525/^1526/-1594/2/2
!!!OCY: Italia
!!!AGN: Mass (Parody)
!!!AST: renaissance, vocal
!!!ASW: Motet 1520 (Josquin)
!!!PWK: Masses, Book 11
!!!RNB: Cadence finals: D
!!!YOR: Le Opere Complete, v. 28, p. 222
!!!YOO: Rome, Italy: Fratelli Scalera
!!!END: 1992//
!!!EED: John Miller
!!!YEC: Copyright 2000, John Miller
!!!YEN: United States of America
!!!YEM: Rights to all derivative electronic formats reserved.
!!!YEM: Refer to licensing agreement for further details.
!!!YEM: This file must be accompanied by the licensing agreement.
!!!YEM: A copy of the licensing agreement may be found at http://www.music-cog.ohio-state.edu/HumdrumDatabases/Palestrina/license.txt
!!!EMD: converted to Humdrum by Bret Aarden
